X:1
T:Nova Scotia, 10.9.10.9 D
T:Charles Hutchinson Gabriel,1902
T:Nova Scotia, 10.9.10.9 D
T:Public Domain
C:Charles Hutchinson Gabriel,1902
Z:Public Domain
%%score 1 ( 2 3 )
L:1/8
M:9/8
K:Bb
V:1 treble 
V:2 bass 
V:3 bass 
V:1
 [DF][DB][Ec] | [Fd]3 [DB]3 [B,D][CE][^C=E] | [_EG]3 [DF]3 [DB][EA][FB] | %3
 [Fc]3 [Fc]3 [Fe][EG][EA] | [DB]3- [DB]2 z [DF][DB][Ec] | [Fd]3 [DB]3 [B,D][CE][^B,=D] | %6
 [_EG]3 [DF]3 [FB][Fc][Fd] | [=Ec]3 [EG]3 [_EA][DB][Ec] | [DB]3- [DB]2 z | [Bd][Ac][Bd] | %10
 [ce]3 [Ac]3 [Ac][GB][Ac] | [Bd]3 [DB]3 [DB][Fc][Bd] | [Ac]3 [Fc]3 [=Ed][Ec][EB] | %13
 [Fc]3- [Fc]2 z [DF][DB][Ec] | [Fd]3 [DB]3 [B,D][CE][^C=E] | [_EG]3 [DF]3 [FB][Fc][Fd] | %16
 [=Ec]3 [EG]3 [_EA][DB][Ec] | [DB]3- [DB]2 z |] %18
V:2
 [B,,B,][B,,B,][B,,B,] | [B,,B,]3 [B,,B,]3 [B,,F,][B,,F,][B,,F,] | %2
 [B,,B,]3 [B,,B,]3 [B,,B,][C,F,][D,B,] | [F,A,]3 [F,A,]3 [F,C][F,A,][F,C] | %4
 [B,,B,]3- [B,,B,]2 z [B,,B,][B,,B,][B,,B,] | [B,,B,]3 [B,,B,]3 [B,,F,][B,,F,][B,,F,] | %6
 [B,,B,]3 [B,,B,]3 [D,B,][C,A,][B,,B,] | [C,B,]3 [C,C]3 [F,C][F,B,][F,A,] | [B,,B,]3- [B,,B,]2 z | %9
 z3 | [F,A,][F,A,][F,A,] F,2 F, z3 | [B,,F,][B,,F,][B,,F,] [B,,F,]2 [B,,F,] z3 | %12
 F,F,F, [F,A,]2 [F,A,] [C,B,][C,B,][C,B,] | [F,A,]3- [F,A,]2 z [B,,B,][B,,B,][B,,B,] | %14
 [B,,B,]3 [B,,B,]3 [B,,F,][B,,F,][B,,F,] | [B,,B,]3 [B,,B,]3 [D,B,][C,A,][B,,B,] | %16
 [C,B,]3 [C,C]3 [F,C][F,B,][F,A,] | [B,,B,]3- [B,,B,]2 z |] %18
V:3
 x3 | x9 | x9 | x9 | x9 | x9 | x9 | x9 | x6 | x3 | x3 F,2 F, x3 | x9 | F,F,F, x6 | x9 | x9 | x9 | %16
 x9 | x6 |] %18

